material/.icons/material/podium-bronze.svg

<svg xmlns="http://www.w3.org/2000/svg" viewBox="0 0 24 24"><path d="M4 13.09l2.45 1.49-.65-2.81L8 9.89l-2.89-.25L4 7 2.87 9.64 0 9.89l2.18 1.88-.68 2.81L4 13.09M7 23H1v-6h6v6m2-13v13h6V10H9m4 11h-2v-9h2v9m4-8v10h6V13h-6m4 8h-2v-6h2v6z"/></svg>

<?xml version="1.0" encoding="UTF-8"?><!DOCTYPE svg PUBLIC "-//W3C//DTD SVG 1.1//EN" "http://www.w3.org/Graphics/SVG/1.1/DTD/svg11.dtd"><svg xmlns="http://www.w3.org/2000/svg" xmlns:xlink="http://www.w3.org/1999/xlink" version="1.1" id="mdi-podium-bronze" width="24" height="24" viewBox="0 0 24 24"><path d="M4,13.09L6.45,14.58L5.8,11.77L8,9.89L5.11,9.64L4,7L2.87,9.64L0,9.89L2.18,11.77L1.5,14.58L4,13.09M7,23H1V17H7V23M9,10V23H15V10H9M13,21H11V12H13V21M17,13V23H23V13H17M21,21H19V15H21V21Z" /></svg>
